X: 28643
T: Musical Chisholm Household, The
R: reel
M: 4/4
K: Adorian
|d2 e2 BAAB|eddB egge|d2 de DE G2|DEGA Bdge|
d2 e2 BAAB|eddB egga|b2 a2 g2 ed|1 gedg BAAB:|2 gedg BAAd||
|:eaad eaad|eaag edBd|ef g2 afgd|efge dBBd|
eaad eaad|eaag edBd|ef g2 afgd|1 efgd BAAd:|2 efgd BAAB||

